!!!COM: Beethoven
!!!OTL: 7 Variations on "God Save the King" in c Major
!!!Variation: Variation 5 b
**function	**harm	**kern	**kern
*	*	*clefF4	*clefG2
*	*	*k[b-e-a-]	*k[b-e-a-]
*M3/4	*M3/4	*M3/4	*M3/4
*c:	*c:	*c:	*c:
=77	=77	=77	=77
2.T	2.III	12E-L	([4gg
.	.	12G	.
.	.	12B-J	.
.	.	12GL	12ggL]
.	.	12B-	12ee-
.	.	12e-J	12ffJ
*	*	*clefG2	*
.	.	12B-L	12ggL
.	.	12e-	12ee-
.	.	12gJ	12ffJ)
=78	=78	=78	=78
4T	4III	12e-L	[4gg
.	.	12g	.
.	.	12b-J	.
4T	4V7c	12dL	12ggL]
.	.	12g	(12gg
.	.	12bJ	12ffJ
.	.	.	qff
4T	4i	12cL	12ee-L)
.	.	12g	12dd
.	.	12ccJ	12ee-J)
=79	=79	=79	=79
2.T	2.ivb	12A-L	([4ff
.	.	12c	.
.	.	12fJ	.
.	.	12A-L	12ffL]
.	.	12c	12dd
.	.	12fJ	12ee-J
.	.	12A-L	12ffL
.	.	12c	12dd
.	.	12fJ	12ee-J)
=80	=80	=80	=80
2.T	2.V7	12GL	[4ff
.	.	12B	.
.	.	12fJ	.
.	.	12AL	12ffL]
.	.	12c	(12ff
.	.	12fJ	12ee-J
.	.	.	qee-
.	.	12BL	12ddL)
.	.	12f	12cc
.	.	12GJ	12ddJ)
=81	=81	=81	=81
4T	4i	12cL	[4ee-
.	.	12e-	.
.	.	12gJ	.
*	*	*clefF4	*
4T	4Cc	12GL	12ee-L]
.	.	12c	(12b
.	.	12e-J	12ccJ
4T	4V7d	12FL	12ddL
.	.	12B	12ee-
.	.	12dJ	12ffJ)
=82	=82	=82	=82
4T	4ib	12E-L	4gg
.	.	12G	.
.	.	12cJ	.
.	.	.	qcc
4T	4Vb/iv	12EL	([4ccc)
.	.	12G	.
.	.	12cJ	.
4T	4V7b/iv	12EL	12cccL]
.	.	12B-	12gg
.	.	12cJ	12bb-J)
=83	=83	=83	=83
4P	4Nb	12FL	(12aa-L
.	.	12A-	12ff
.	.	12d-J	12dd-J)
4D	4Cc	12GL	4cc
.	.	12c	.
.	.	12e-J	.
4D	4V7	12GL	4b
.	.	12d	.
.	.	12fJ	.
=84	=84	=84	=84
2.T	2.i	12cL	(4b 4dd
.	.	12f	.
.	.	12gJ	.
.	.	8c 8e-	8cc)
.	.	8r	8r
.	.	4r	4r
*-	*-	*-	*-
